X: 1134
T: The Headlands March
C: Ronnie Cooper
M: 4/4
L: 1/8
R: march
K: A Major
|: e>c |
d>cB>A B<cE>A | F<Ad>f ~e2 (3efg | a>ef<a f>ed<c | c>BA<c B2 c>B |
d>cB>A B<cE>A | F>Ad>f ~a2 g>f | e<ae>c B>fe>d | c2 ~A2 A2 :|
|: (3efg | 
a>ef<a c>ec<A | d>Ad<f e2 (3efg | a>ef<a f>ed<c |
[1 c>BA<c B2 (3efg | a>ee<a c>ec<A | d>Ad<f a2 g>f | e<aA>c B>fe>d | ~c2 A2 A2 :|
[2 c>BAc B2 e>d | d>cB>A A<cE>A | F>Ad>f ~a2 g>f | e<aA>c B>fe>d | ~c2 A2 A2 |]
